src/assets/duotone/Paintbucket.svg

<svg width="24" height="24" viewBox="0 0 24 24"  xmlns="http://www.w3.org/2000/svg">
<path opacity="0.4" d="M19.11 7.46999L15.59 3.94999C12.43 0.799986 10.77 1.95999 8.77005 3.94999L3.11005 9.60999C1.96005 10.76 1.33005 11.5 1.10005 12.32C1.10005 12.33 1.09005 12.33 1.09005 12.33C1.09005 12.34 1.09005 12.34 1.09005 12.34C1.09005 12.35 1.09005 12.35 1.09005 12.35V12.38C0.680048 13.84 1.76005 15.08 3.11005 16.43L6.64005 19.94C7.90005 21.21 8.92005 22 10.05 22C11.18 22 12.15 21.24 13.45 19.94L19.11 14.29C19.6 13.79 19.96 13.38 20.24 12.99C20.24 12.98 20.24 12.98 20.24 12.98C20.24 12.98 20.24 12.98 20.25 12.98C21.53 11.19 21.19 9.53999 19.11 7.46999ZM19.15 9.91999C19.58 10.65 18.9 11.55 18.07 11.37C17.76 11.3 17.46 11.24 17.15 11.18C17.13 11.18 17.11 11.17 17.08 11.17C16.38 11.04 15.67 10.93 14.95 10.84H14.91C14.19 10.75 13.46 10.68 12.73 10.64H12.65C12.01 10.6 11.36 10.58 10.72 10.58C9.94005 10.58 9.16005 10.62 8.39005 10.67C8.26005 10.68 8.14005 10.69 8.02005 10.7C7.44005 10.74 6.86005 10.8 6.29005 10.87C6.13005 10.89 5.98005 10.91 5.83005 10.93C5.25005 11.02 4.68005 11.11 4.11005 11.22C3.98005 11.25 3.86005 11.27 3.73005 11.29C3.68005 11.3 3.62005 11.31 3.57005 11.32C3.75005 11.12 3.96005 10.91 4.19005 10.68L9.84005 5.02999C11.66 3.22999 12.28 2.79999 14.52 5.02999L18.03 8.54999C18.57 9.07999 18.93 9.52999 19.15 9.91999Z" />
<path d="M19.1498 9.92018C19.5798 10.6502 18.8998 11.5502 18.0698 11.3702C17.7598 11.3002 17.4598 11.2402 17.1498 11.1802C17.1298 11.1802 17.1098 11.1702 17.0798 11.1702C16.3798 11.0402 15.6698 10.9302 14.9498 10.8402H14.9098C14.1898 10.7502 13.4598 10.6802 12.7298 10.6402H12.6498C12.0098 10.6002 11.3598 10.5802 10.7198 10.5802C9.93983 10.5802 9.15982 10.6202 8.38982 10.6702C8.25982 10.6802 8.13982 10.6902 8.01982 10.7002C7.43983 10.7402 6.85982 10.8002 6.28982 10.8702C6.12982 10.8902 5.97982 10.9102 5.82982 10.9302C5.24982 11.0202 4.67982 11.1102 4.10982 11.2202C3.97982 11.2502 3.85982 11.2702 3.72982 11.2902C3.67982 11.3002 3.61982 11.3102 3.56982 11.3202C3.74982 11.1202 3.95982 10.9102 4.18982 10.6802L9.83982 5.03018C11.6598 3.23018 12.2798 2.80018 14.5198 5.03018L18.0298 8.55018C18.5698 9.08018 18.9298 9.53018 19.1498 9.92018Z" />
<path d="M20.9499 16.87C20.5699 16.4 20.2399 16 19.4999 16C18.7599 16 18.4299 16.4 18.0599 16.87C17.2599 17.86 16.8999 18.94 17.0299 19.98C17.1799 21.17 18.1999 22 19.4999 22C20.7999 22 21.8199 21.17 21.9699 19.97C22.0999 18.93 21.7499 17.86 20.9499 16.87Z" />
</svg>

<?xml version="1.0" encoding="UTF-8"?>
<svg width="24" height="24" viewBox="0 0 24 24" xmlns="http://www.w3.org/2000/svg">
 <path d="m19.11 7.47-3.52-3.52c-3.16-3.15-4.82-1.99-6.82 0l-5.66 5.66c-1.15 1.15-1.78 1.89-2.01 2.71 0 0.01-0.01 0.01-0.01 0.01v0.01 0.01 0.03c-0.41 1.46 0.67 2.7 2.02 4.05l3.53 3.51c1.26 1.27 2.28 2.06 3.41 2.06 1.13 0 2.1-0.76 3.4-2.06l5.66-5.65c0.49-0.5 0.85-0.91 1.13-1.3v-0.01h0.01c1.28-1.79 0.94-3.44-1.14-5.51zm0.04 2.45c0.43 0.73001-0.25 1.63-1.08 1.45-0.31-0.07-0.61-0.13-0.92-0.19-0.02 0-0.04-0.01-0.07-0.01-0.7-0.13-1.41-0.24-2.13-0.33h-0.04c-0.72-0.09-1.45-0.16-2.18-0.2h-0.08c-0.64-0.04-1.29-0.06-1.93-0.06-0.77995 0-1.56 0.04-2.33 0.09-0.13 0.01-0.25 0.02-0.37 0.03-0.58 0.04-1.16 0.1-1.73 0.17-0.16 0.02-0.31 0.04-0.46 0.06-0.58 0.09-1.15 0.18-1.72 0.29-0.13 0.03-0.25 0.05-0.38 0.07-0.05 0.01-0.11 0.02-0.16 0.03 0.18-0.2 0.39-0.41 0.62-0.64l5.65-5.65c1.82-1.8 2.44-2.23 4.68 0l3.51 3.52c0.54 0.53 0.9 0.98 1.12 1.37z" opacity=".4"/>
 <path d="m19.15 9.9202c0.43 0.73002-0.25 1.63-1.08 1.45-0.31-0.07-0.61-0.13-0.92-0.19-0.02 0-0.04-0.01-0.07-0.01-0.7-0.13-1.41-0.24-2.13-0.33h-0.04c-0.72-0.09-1.45-0.16-2.18-0.2h-0.08c-0.64-0.04-1.29-0.06-1.93-0.06-0.77997 0-1.56 0.04-2.33 0.09-0.13 0.01-0.25 0.02-0.37 0.03-0.57999 0.04-1.16 0.1-1.73 0.17-0.16 0.02-0.31 0.04-0.46 0.06-0.58 0.09-1.15 0.18-1.72 0.29-0.13 0.03-0.25 0.05-0.38 0.07-0.05 0.01-0.11 0.02-0.16 0.03 0.18-0.2 0.39-0.41 0.62-0.64l5.65-5.65c1.82-1.8 2.44-2.23 4.68 0l3.51 3.52c0.54 0.53 0.9 0.98 1.12 1.37z"/>
 <path d="m20.95 16.87c-0.38-0.47-0.71-0.87-1.45-0.87s-1.07 0.4-1.44 0.87c-0.8 0.99-1.16 2.07-1.03 3.11 0.15 1.19 1.17 2.02 2.47 2.02s2.32-0.83 2.47-2.03c0.13-1.04-0.22-2.11-1.02-3.1z"/>
</svg>
